branches/nugui/src/gui/icons/build_probe.svg

<?xml version="1.0" encoding="UTF-8" standalone="no"?>
<!-- Created with Inkscape (http://www.inkscape.org/) -->

<svg
   xmlns:dc="http://purl.org/dc/elements/1.1/"
   xmlns:cc="http://creativecommons.org/ns#"
   xmlns:rdf="http://www.w3.org/1999/02/22-rdf-syntax-ns#"
   xmlns:svg="http://www.w3.org/2000/svg"
   xmlns="http://www.w3.org/2000/svg"
   xmlns:xlink="http://www.w3.org/1999/xlink"
   xmlns:inkscape="http://www.inkscape.org/namespaces/inkscape"
   version="1.0"
   width="100"
   height="100"
   id="svg2">
  <metadata
     id="metadata2566">
    <rdf:RDF>
      <cc:Work
         rdf:about="">
        <dc:format>image/svg+xml</dc:format>
        <dc:type
           rdf:resource="http://purl.org/dc/dcmitype/StillImage" />
      </cc:Work>
    </rdf:RDF>
  </metadata>
  <defs
     id="defs4">
    <linearGradient
       id="linearGradient3384">
      <stop
         id="stop3386"
         style="stop-color:#0000ff;stop-opacity:1"
         offset="0" />
      <stop
         id="stop3388"
         style="stop-color:#000000;stop-opacity:1"
         offset="1" />
    </linearGradient>
    <linearGradient
       id="linearGradient3252">
      <stop
         id="stop3254"
         style="stop-color:#ffffff;stop-opacity:1"
         offset="0" />
      <stop
         id="stop3256"
         style="stop-color:#7f7fff;stop-opacity:0"
         offset="1" />
    </linearGradient>
    <linearGradient
       x1="25.398125"
       y1="63.345894"
       x2="90.625114"
       y2="63.345894"
       id="linearGradient3469"
       xlink:href="#linearGradient3384"
       gradientUnits="userSpaceOnUse"
       gradientTransform="matrix(0.2688926,0.2688926,-0.2688926,0.2688926,38.227733,-8.4494346)" />
    <radialGradient
       cx="58.01162"
       cy="63.345894"
       r="33.113495"
       fx="58.01162"
       fy="63.345894"
       id="radialGradient3471"
       xlink:href="#linearGradient3252"
       gradientUnits="userSpaceOnUse"
       gradientTransform="matrix(0.2134373,0,0,0.2134373,19.805211,5.9610473)" />
  </defs>
  <g
     transform="matrix(1.3050069,0,0,1.3050069,-16.778349,5.069422)"
     id="g3462">
    <path
       d="m 51.916898,26.04927 c 0.0012,6.850275 -5.55171,12.404157 -12.40198,12.404157 -6.85028,0 -12.40319,-5.553882 -12.40199,-12.404157 -0.0012,-6.850276 5.55171,-12.404157 12.40199,-12.404157 6.85027,0 12.40318,5.553881 12.40198,12.404157 l 0,0 z"
       inkscape:connector-curvature="0"
       id="path6824"
       style="fill:#282828;fill-opacity:1;fill-rule:evenodd;stroke:none" />
    <g
       id="g3519">
      <path
         d="m 49.066773,24.22879 c 0.0012,6.850275 -5.551709,12.404157 -12.401985,12.404157 -6.850275,0 -12.403184,-5.553882 -12.401985,-12.404157 -0.0012,-6.850276 5.55171,-12.404157 12.401985,-12.404157 6.850276,0 12.403184,5.553881 12.401985,12.404157 l 0,0 z"
         inkscape:connector-curvature="0"
         id="path3474"
         style="fill:#0000ff;fill-opacity:1;fill-rule:evenodd;stroke:#000000;stroke-width:0.38027155px;stroke-linecap:butt;stroke-linejoin:miter;stroke-opacity:1" />
      <path
         d="m 45.562914,32.95223 c -4.843029,4.844723 -12.696715,4.845411 -17.54059,0.0015 -4.843878,-4.843877 -4.843189,-12.697563 0.0015,-17.54059 4.843028,-4.844725 12.696714,-4.845413 17.540591,-0.0015 4.843875,4.843876 4.843187,12.697563 -0.0015,17.540591 l 0,0 z"
         inkscape:connector-curvature="0"
         id="path3476"
         style="opacity:0.71739131;fill:url(#linearGradient3469);fill-opacity:1;fill-rule:evenodd;stroke:none" />
      <path
         d="m 39.147988,19.481422 c 6.73e-4,3.844893 -3.11604,6.962154 -6.960935,6.962154 -3.844894,0 -6.961608,-3.117261 -6.960935,-6.962154 -6.73e-4,-3.844895 3.116041,-6.962154 6.960935,-6.962154 3.844895,0 6.961608,3.117259 6.960935,6.962154 l 0,0 z"
         inkscape:connector-curvature="0"
         id="path3478"
         style="fill:url(#radialGradient3471);fill-opacity:1;fill-rule:evenodd;stroke:none" />
    </g>
  </g>
  <path
     d="m 66.450953,56.938159 7.634938,0 0,9.553075 -7.634938,0 0,-9.553075 m 7.409275,-5.528748 -7.183612,0 0,-5.792022 c -1.5e-5,-2.532419 0.351017,-4.613533 1.053095,-6.243348 0.702047,-1.629761 2.181393,-3.522822 4.438043,-5.67919 l 3.384947,-3.347337 c 1.429175,-1.328868 2.457196,-2.582551 3.084064,-3.761053 0.651888,-1.178423 0.977846,-2.381958 0.977874,-3.610611 -2.8e-5,-2.231513 -0.827459,-4.036816 -2.482295,-5.415917 -1.629814,-1.379002 -3.798685,-2.068528 -6.506622,-2.068579 -1.980838,5.1e-5 -4.099563,0.43884 -6.35618,1.316369 -2.231568,0.877627 -4.563419,2.156384 -6.995559,3.836274 l 0,-7.07078 c 2.356919,-1.429146 4.738917,-2.494777 7.146001,-3.196895 2.432133,-0.7020066 4.939499,-1.0530379 7.522107,-1.0530951 4.613533,5.72e-5 8.311898,1.2161301 11.095106,3.6482211 2.808219,2.432199 4.212344,5.641628 4.21238,9.628296 -3.6e-5,1.905643 -0.451362,3.723483 -1.35398,5.453527 -0.902686,1.705048 -2.482326,3.63572 -4.738926,5.792022 l -3.309727,3.234506 c -1.178488,1.178491 -2.018456,2.106217 -2.519906,2.783179 -0.476423,0.651942 -0.814917,1.29132 -1.015484,1.918137 -0.150465,0.526572 -0.263296,1.16595 -0.338495,1.918137 -0.07524,0.752233 -0.112854,1.780253 -0.112831,3.084064 l 0,4.626095"
     inkscape:connector-curvature="0"
     id="text2174"
     style="font-size:77.02636719px;font-style:normal;font-weight:normal;fill:#000000;fill-opacity:1;stroke:none;font-family:Bitstream Vera Sans" />
  <path
     d="m 41.996702,74.346494 c -3.28298,2.646908 5.023448,6.273278 2.180884,1.60941 -1.677447,-3.268058 4.785581,-0.0043 1.078135,-0.526366 2.121109,4.751592 -4.131527,6.00646 -4.441307,1.047401 -0.300467,-0.781051 -0.286384,-3.222556 1.182288,-2.130445 z m -1.53053,4.269802 c -2.726147,3.072033 -2.638318,-5.87909 -0.902509,-1.197434 -1.268182,1.845471 -0.873289,1.148252 0.902509,1.197434 z m -6.231919,-0.51237 c 2.073776,1.543243 1.101704,-4.819008 2.58991,0.149608 0.205682,2.185772 -2.198212,1.09501 -2.58991,-0.149608 z M 36.2797,77.705409 c 0.39265,-2.241232 -2.4852,-0.489797 0,0 z m -4.979558,-1.26196 c 1.142117,-1.389308 -1.400283,-4.673872 1.011971,-1.36435 1.085784,1.90943 2.482608,9.252209 0.320939,3.74512 -0.219483,-0.883106 -0.505102,-1.867731 -1.33291,-2.38077 z m -0.502778,0.113854 c 0.922376,3.679154 -5.468501,3.003503 -3.026809,-0.252957 1.027236,4.420392 1.791994,-1.745613 3.026809,0.252957 l 0,0 z m -6.480795,1.622525 c 2.947986,-0.412902 -1.524926,-7.349553 1.563559,-2.32812 0.383824,1.259451 0.658629,5.37737 -1.563559,2.32812 z m -4.757315,-1.736379 c 1.142133,-1.389308 -1.400292,-4.673872 1.011977,-1.36435 1.085783,1.90943 2.482606,9.252209 0.320939,3.745109 -0.219484,-0.883095 -0.505107,-1.86772 -1.332916,-2.380759 z m -2.01792,-1.7269 c -1.597646,-0.608948 1.398186,-1.029022 0,0 z m -0.65341,3.586635 c 1.740563,-1.821427 1.485532,-3.214137 1.772299,0.583164 -0.324966,0.943251 -1.596775,-0.133939 -1.772299,-0.583164 z m -2.225958,-0.123356 c 2.947987,-0.412902 -1.524928,-7.349553 1.563559,-2.32812 0.383828,1.259451 0.658623,5.37737 -1.563559,2.32812 z m -2.955119,-0.0759 c 2.073775,1.543243 1.101697,-4.819019 2.589909,0.149597 0.205682,2.185772 -2.198209,1.095021 -2.589909,-0.149597 z m 2.045442,-0.398517 c 0.392652,-2.241232 -2.485201,-0.489808 0,0 z m -2.072377,0.910887 c -2.7261479,3.072033 -2.6383135,-5.87909 -0.902503,-1.197434 -1.2681702,1.84546 -0.8733053,1.148263 0.902503,1.197434 z"
     inkscape:connector-curvature="0"
     id="text5084"
     style="font-size:8.88496017px;font-style:normal;font-weight:normal;line-height:125%;fill:#000000;fill-opacity:1;stroke:none;font-family:Bitstream Vera Sans" />
  <use
     transform="translate(47.089415,-8.3640098e-8)"
     id="use2258"
     x="0"
     y="0"
     width="100"
     height="100"
     xlink:href="#text5084" />
  <use
     transform="translate(24.512298,10.966028)"
     id="use2260"
     x="0"
     y="0"
     width="100"
     height="100"
     xlink:href="#text5084" />
  <path
     d="m 68.804117,59.454652 7.63494,0 0,9.553075 -7.63494,0 0,-9.553075 m 7.40928,-5.528748 -7.18361,0 0,-5.792022 c -2e-5,-2.532419 0.35101,-4.613533 1.05309,-6.243348 0.70205,-1.629761 2.18139,-3.522822 4.43804,-5.67919 l 3.38495,-3.347337 c 1.42918,-1.328868 2.4572,-2.582551 3.08407,-3.761053 0.65189,-1.178423 0.97784,-2.381958 0.97787,-3.610611 -3e-5,-2.231513 -0.82746,-4.036816 -2.4823,-5.415917 -1.62981,-1.379002 -3.79868,-2.068528 -6.50662,-2.068579 -1.98084,5.1e-5 -4.09956,0.43884 -6.35618,1.316369 -2.23157,0.877627 -4.56342,2.156384 -6.99556,3.836274 l 0,-7.07078 c 2.35692,-1.429146 4.73892,-2.494777 7.146,-3.196895 2.43214,-0.702007 4.9395,-1.053038 7.52211,-1.053095 4.61353,5.7e-5 8.3119,1.21613 11.09511,3.648221 2.80822,2.432199 4.21234,5.641628 4.21238,9.628296 -4e-5,1.905643 -0.45136,3.723483 -1.35398,5.453527 -0.90269,1.705048 -2.48233,3.63572 -4.73893,5.792022 l -3.30973,3.234506 c -1.17848,1.178491 -2.01845,2.106217 -2.5199,2.783179 -0.47642,0.651942 -0.81492,1.29132 -1.01549,1.918137 -0.15046,0.526572 -0.26329,1.16595 -0.33849,1.918137 -0.07524,0.752233 -0.11285,1.780253 -0.11283,3.084064 l 0,4.626095"
     inkscape:connector-curvature="0"
     id="path3238"
     style="font-size:77.02636719px;font-style:normal;font-weight:normal;fill:#000000;fill-opacity:0.71348314;stroke:none;font-family:Bitstream Vera Sans" />
</svg>

<?xml version="1.0" encoding="UTF-8" standalone="no"?>
<!-- Created with Inkscape (http://www.inkscape.org/) -->
<svg
   xmlns:dc="http://purl.org/dc/elements/1.1/"
   xmlns:cc="http://web.resource.org/cc/"
   xmlns:rdf="http://www.w3.org/1999/02/22-rdf-syntax-ns#"
   xmlns:svg="http://www.w3.org/2000/svg"
   xmlns="http://www.w3.org/2000/svg"
   xmlns:xlink="http://www.w3.org/1999/xlink"
   xmlns:sodipodi="http://sodipodi.sourceforge.net/DTD/sodipodi-0.dtd"
   xmlns:inkscape="http://www.inkscape.org/namespaces/inkscape"
   version="1.0"
   width="100"
   height="100"
   id="svg2"
   sodipodi:version="0.32"
   inkscape:version="0.45.1"
   sodipodi:docname="build_probe.svg"
   sodipodi:docbase="/home/tris/src/aten/src/gui-qt/icons"
   inkscape:output_extension="org.inkscape.output.svg.inkscape">
  <metadata
     id="metadata2566">
    <rdf:RDF>
      <cc:Work
         rdf:about="">
        <dc:format>image/svg+xml</dc:format>
        <dc:type
           rdf:resource="http://purl.org/dc/dcmitype/StillImage" />
      </cc:Work>
    </rdf:RDF>
  </metadata>
  <sodipodi:namedview
     inkscape:window-height="728"
     inkscape:window-width="1018"
     inkscape:pageshadow="2"
     inkscape:pageopacity="0.0"
     guidetolerance="10.0"
     gridtolerance="10.0"
     objecttolerance="10.0"
     borderopacity="1.0"
     bordercolor="#666666"
     pagecolor="#ffffff"
     id="base"
     inkscape:zoom="1.7288761"
     inkscape:cx="-77.364096"
     inkscape:cy="62.290439"
     inkscape:window-x="0"
     inkscape:window-y="6"
     inkscape:current-layer="svg2" />
  <defs
     id="defs4">
    <linearGradient
       id="linearGradient3384">
      <stop
         style="stop-color:#0000ff;stop-opacity:1;"
         offset="0"
         id="stop3386" />
      <stop
         style="stop-color:#000000;stop-opacity:1"
         offset="1"
         id="stop3388" />
    </linearGradient>
    <linearGradient
       id="linearGradient3252">
      <stop
         style="stop-color:#ffffff;stop-opacity:1"
         offset="0"
         id="stop3254" />
      <stop
         style="stop-color:#7f7fff;stop-opacity:0;"
         offset="1"
         id="stop3256" />
    </linearGradient>
    <linearGradient
       inkscape:collect="always"
       xlink:href="#linearGradient3384"
       id="linearGradient3469"
       gradientUnits="userSpaceOnUse"
       gradientTransform="matrix(0.2688926,0.2688926,-0.2688926,0.2688926,38.227733,-8.4494346)"
       x1="25.398125"
       y1="63.345894"
       x2="90.625114"
       y2="63.345894" />
    <radialGradient
       inkscape:collect="always"
       xlink:href="#linearGradient3252"
       id="radialGradient3471"
       gradientUnits="userSpaceOnUse"
       gradientTransform="matrix(0.2134373,0,0,0.2134373,19.805211,5.9610473)"
       cx="58.01162"
       cy="63.345894"
       fx="58.01162"
       fy="63.345894"
       r="33.113495" />
  </defs>
  <g
     id="g3462"
     transform="matrix(1.3050069,0,0,1.3050069,-16.778349,5.069422)">
    <path
       d="M 51.916898,26.04927 C 51.918098,32.899545 46.365188,38.453427 39.514918,38.453427 C 32.664638,38.453427 27.111728,32.899545 27.112928,26.04927 C 27.111728,19.198994 32.664638,13.645113 39.514918,13.645113 C 46.365188,13.645113 51.918098,19.198994 51.916898,26.04927 L 51.916898,26.04927 z "
       style="fill:#282828;fill-opacity:1;fill-rule:evenodd;stroke:none;stroke-width:0.38027155px;stroke-linecap:butt;stroke-linejoin:miter;stroke-opacity:1"
       id="path6824" />
    <g
       id="g3519">
      <path
         id="path3474"
         style="fill:#0000ff;fill-opacity:1;fill-rule:evenodd;stroke:#000000;stroke-width:0.38027155px;stroke-linecap:butt;stroke-linejoin:miter;stroke-opacity:1"
         d="M 49.066773,24.22879 C 49.067972,31.079065 43.515064,36.632947 36.664788,36.632947 C 29.814513,36.632947 24.261604,31.079065 24.262803,24.22879 C 24.261604,17.378514 29.814513,11.824633 36.664788,11.824633 C 43.515064,11.824633 49.067972,17.378514 49.066773,24.22879 L 49.066773,24.22879 z " />
      <path
         id="path3476"
         style="opacity:0.71739131;fill:url(#linearGradient3469);fill-opacity:1;fill-rule:evenodd;stroke:none;stroke-width:1px;stroke-linecap:butt;stroke-linejoin:miter;stroke-opacity:1"
         d="M 45.562914,32.95223 C 40.719885,37.796953 32.866199,37.797641 28.022324,32.953766 C 23.178446,28.109889 23.179135,20.256203 28.023859,15.413176 C 32.866887,10.568451 40.720573,10.567763 45.56445,15.411639 C 50.408325,20.255515 50.407637,28.109202 45.562914,32.95223 L 45.562914,32.95223 z " />
      <path
         id="path3478"
         style="fill:url(#radialGradient3471);fill-opacity:1;fill-rule:evenodd;stroke:none;stroke-width:1px;stroke-linecap:butt;stroke-linejoin:miter;stroke-opacity:1"
         d="M 39.147988,19.481422 C 39.148661,23.326315 36.031948,26.443576 32.187053,26.443576 C 28.342159,26.443576 25.225445,23.326315 25.226118,19.481422 C 25.225445,15.636527 28.342159,12.519268 32.187053,12.519268 C 36.031948,12.519268 39.148661,15.636527 39.147988,19.481422 L 39.147988,19.481422 z " />
    </g>
  </g>
  <path
     style="font-size:77.02636719px;font-style:normal;font-weight:normal;fill:#000000;fill-opacity:1;stroke:none;stroke-width:1px;stroke-linecap:butt;stroke-linejoin:miter;stroke-opacity:1;font-family:Bitstream Vera Sans"
     d="M 66.450953,56.938159 L 74.085891,56.938159 L 74.085891,66.491234 L 66.450953,66.491234 L 66.450953,56.938159 M 73.860228,51.409411 L 66.676616,51.409411 L 66.676616,45.617389 C 66.676601,43.08497 67.027633,41.003856 67.729711,39.374041 C 68.431758,37.74428 69.911104,35.851219 72.167754,33.694851 L 75.552701,30.347514 C 76.981876,29.018646 78.009897,27.764963 78.636765,26.586461 C 79.288653,25.408038 79.614611,24.204503 79.614639,22.97585 C 79.614611,20.744337 78.78718,18.939034 77.132344,17.559933 C 75.50253,16.180931 73.333659,15.491405 70.625722,15.491354 C 68.644884,15.491405 66.526159,15.930194 64.269542,16.807723 C 62.037974,17.68535 59.706123,18.964107 57.273983,20.643997 L 57.273983,13.573217 C 59.630902,12.144071 62.0129,11.07844 64.419984,10.376322 C 66.852117,9.6743154 69.359483,9.3232841 71.942091,9.3232269 C 76.555624,9.3232841 80.253989,10.539357 83.037197,12.971448 C 85.845416,15.403647 87.249541,18.613076 87.249577,22.599744 C 87.249541,24.505387 86.798215,26.323227 85.895597,28.053271 C 84.992911,29.758319 83.413271,31.688991 81.156671,33.845293 L 77.846944,37.079799 C 76.668456,38.25829 75.828488,39.186016 75.327038,39.862978 C 74.850615,40.51492 74.512121,41.154298 74.311554,41.781115 C 74.161089,42.307687 74.048258,42.947065 73.973059,43.699252 C 73.897816,44.451485 73.860205,45.479505 73.860228,46.783316 L 73.860228,51.409411"
     id="text2174" />
  <path
     style="font-size:8.88496017px;font-style:normal;font-weight:normal;line-height:125%;fill:#000000;fill-opacity:1;stroke:none;stroke-width:1px;stroke-linecap:butt;stroke-linejoin:miter;stroke-opacity:1;font-family:Bitstream Vera Sans"
     d="M 41.996702,74.346494 C 38.713722,76.993402 47.02015,80.619772 44.177586,75.955904 C 42.500139,72.687846 48.963167,75.951633 45.255721,75.429538 C 47.37683,80.18113 41.124194,81.435998 40.814414,76.476939 C 40.513947,75.695888 40.52803,73.254383 41.996702,74.346494 z M 40.466172,78.616296 C 37.740025,81.688329 37.827854,72.737206 39.563663,77.418862 C 38.295481,79.264333 38.690374,78.567114 40.466172,78.616296 z M 34.234253,78.103926 C 36.308029,79.647169 35.335957,73.284918 36.824163,78.253534 C 37.029845,80.439306 34.625951,79.348544 34.234253,78.103926 z M 36.2797,77.705409 C 36.67235,75.464177 33.7945,77.215612 36.2797,77.705409 z M 31.300142,76.443449 C 32.442259,75.054141 29.899859,71.769577 32.312113,75.079099 C 33.397897,76.988529 34.794721,84.331308 32.633052,78.824219 C 32.413569,77.941113 32.12795,76.956488 31.300142,76.443449 z M 30.797364,76.557303 C 31.71974,80.236457 25.328863,79.560806 27.770555,76.304346 C 28.797791,80.724738 29.562549,74.558733 30.797364,76.557303 L 30.797364,76.557303 z M 24.316569,78.179828 C 27.264555,77.766926 22.791643,70.830275 25.880128,75.851708 C 26.263952,77.111159 26.538757,81.229078 24.316569,78.179828 z M 19.559254,76.443449 C 20.701387,75.054141 18.158962,71.769577 20.571231,75.079099 C 21.657014,76.988529 23.053837,84.331308 20.89217,78.824208 C 20.672686,77.941113 20.387063,76.956488 19.559254,76.443449 z M 17.541334,74.716549 C 15.943688,74.107601 18.93952,73.687527 17.541334,74.716549 z M 16.887924,78.303184 C 18.628487,76.481757 18.373456,75.089047 18.660223,78.886348 C 18.335257,79.829599 17.063448,78.752409 16.887924,78.303184 z M 14.661966,78.179828 C 17.609953,77.766926 13.137038,70.830275 16.225525,75.851708 C 16.609353,77.111159 16.884148,81.229078 14.661966,78.179828 z M 11.706847,78.103926 C 13.780622,79.647169 12.808544,73.284907 14.296756,78.253523 C 14.502438,80.439295 12.098547,79.348544 11.706847,78.103926 z M 13.752289,77.705409 C 14.144941,75.464177 11.267088,77.215601 13.752289,77.705409 z M 11.679912,78.616296 C 8.9537641,81.688329 9.0415985,72.737206 10.777409,77.418862 C 9.5092388,79.264322 9.9041037,78.567125 11.679912,78.616296 z "
     id="text5084" />
  <use
     x="0"
     y="0"
     xlink:href="#text5084"
     id="use2258"
     transform="translate(47.089415,-8.3640098e-8)"
     width="100"
     height="100" />
  <use
     x="0"
     y="0"
     xlink:href="#text5084"
     id="use2260"
     transform="translate(24.512298,10.966028)"
     width="100"
     height="100" />
  <path
     style="font-size:77.02636719px;font-style:normal;font-weight:normal;fill:#000000;fill-opacity:0.71348314;stroke:none;stroke-width:1px;stroke-linecap:butt;stroke-linejoin:miter;stroke-opacity:1;font-family:Bitstream Vera Sans"
     d="M 68.804117,59.454652 L 76.439057,59.454652 L 76.439057,69.007727 L 68.804117,69.007727 L 68.804117,59.454652 M 76.213397,53.925904 L 69.029787,53.925904 L 69.029787,48.133882 C 69.029767,45.601463 69.380797,43.520349 70.082877,41.890534 C 70.784927,40.260773 72.264267,38.367712 74.520917,36.211344 L 77.905867,32.864007 C 79.335047,31.535139 80.363067,30.281456 80.989937,29.102954 C 81.641827,27.924531 81.967777,26.720996 81.967807,25.492343 C 81.967777,23.26083 81.140347,21.455527 79.485507,20.076426 C 77.855697,18.697424 75.686827,18.007898 72.978887,18.007847 C 70.998047,18.007898 68.879327,18.446687 66.622707,19.324216 C 64.391137,20.201843 62.059287,21.4806 59.627147,23.16049 L 59.627147,16.08971 C 61.984067,14.660564 64.366067,13.594933 66.773147,12.892815 C 69.205287,12.190808 71.712647,11.839777 74.295257,11.83972 C 78.908787,11.839777 82.607157,13.05585 85.390367,15.487941 C 88.198587,17.92014 89.602707,21.129569 89.602747,25.116237 C 89.602707,27.02188 89.151387,28.83972 88.248767,30.569764 C 87.346077,32.274812 85.766437,34.205484 83.509837,36.361786 L 80.200107,39.596292 C 79.021627,40.774783 78.181657,41.702509 77.680207,42.379471 C 77.203787,43.031413 76.865287,43.670791 76.664717,44.297608 C 76.514257,44.82418 76.401427,45.463558 76.326227,46.215745 C 76.250987,46.967978 76.213377,47.995998 76.213397,49.299809 L 76.213397,53.925904"
     id="path3238" />
</svg>
